X: 104
T: Bon temps / Adieu mes amours
C: Gaspar van Weerbeke
%%abc-version 2.0
%%abcx-abcm2ps-target-version 5.9.1 (29 Sep 2008)
%%abc-creator hum2abc beta
%%abcx-conversion-date 2022/03/06 13:05:53
%%abc-copyright Copyright 2018, Kolb, Paul
%%abc-edited-by Zybina, Karina
%%humdrum-veritas 1699603787
%%humdrum-veritas-data 2228213831
%%linebreak <none>
%%barnumbers 0
L: 1/4
M: 2/2
N: Derived from Gas0503.2-Bon_temps_Adieu_mes_amours.krn
%%staves [1 2 3 4]
V: 1 clef=treble
V: 2 clef=treble-8
V: 3 clef=treble-8
V: 4 clef=bass
K: F
[V:1] z4 | 
[V:2] z4 | 
[V:3] z4 | 
[V:4] G,2G,2- | 
[V:1] G2BB | 
[V:2] d2d2- | 
[V:3] z4 | 
[V:4] G,2D,2 | 
[V:1] Addc | 
[V:2] d2_e2 | 
[V:3] z4 | 
[V:4] F,>F,G,A, | 
[V:1] d2z2 | 
[V:2] d4 | 
[V:3] G2B2 | 
[V:4] B,2z2 | 
[V:1] z4 | 
[V:2] c2B2- | 
[V:3] A2G2 | 
[V:4] z4 | 
[V:1] z2A2 | 
[V:2] BA/G/A2 | 
[V:3] d4 | 
[V:4] D,2F,2 | 
[V:1] BGA/G/F/E/ | 
[V:2] G2z2 | 
[V:3] B2c2 | 
[V:4] G,2F,2 | 
[V:1] DG>^F F/E/ | 
[V:2] z2d2 | 
[V:3] BGA2 | 
[V:4] G,E,D,2 | 
[V:1] G2z2 | 
[V:2] d4 | 
[V:3] G2DG | 
[V:4] z2B,,2 | 
[V:1] z4 | 
[V:2] c2B2 | 
[V:3] G^FG2 | 
[V:4] A,,2G,,2 | 
[V:1] z4 | 
[V:2] d>efe- | 
[V:3] B2A2 | 
[V:4] z4 | 
[V:1] z4 | 
[V:2] e/d/d2^c | 
[V:3] G/F/E/D/E2 | 
[V:4] z4 | 
[V:1] z4 | 
[V:2] d4 | 
[V:3] D2z2 | 
[V:4] z2G,G, | 
[V:1] GGFF | 
[V:2] z4 | 
[V:3] zGAA | 
[V:4] E,E,D,D, | 
[V:1] G>FE2 | 
[V:2] z4 | 
[V:3] GGcc | 
[V:4] E,>D,C,2 | 
[V:1] DGG^F | 
[V:2] z4 | 
[V:3] BBA2 | 
[V:4] G,2z2 | 
[V:1] G4 | 
[V:2] ddee | 
[V:3] G2z2 | 
[V:4] z2C,2 | 
[V:1] z4 | 
[V:2] ffe2 | 
[V:3] zFGA | 
[V:4] D,2E,C, | 
[V:1] z4 | 
[V:2] ddee | 
[V:3] B2Gc | 
[V:4] G,2z2 | 
[V:1] z4 | 
[V:2] ffe2 | 
[V:3] ccc2 | 
[V:4] A,2A,A, | 
[V:1] z4 | 
[V:2] g>fed | 
[V:3] z4 | 
[V:4] B,>A,G,B, | 
[V:1] z4 | 
[V:2] fe>dd- | 
[V:3] z4 | 
[V:4] A,2G,F, | 
[V:1] G2FF | 
[V:2] d^cd2 | 
[V:3] G2AA | 
[V:4] E,2D,2 | 
[V:1] G2FE- | 
[V:2] d2cc | 
[V:3] B2A2 | 
[V:4] zG,,A,,2 | 
[V:1] E/D/D2^C | 
[V:2] BGA2 | 
[V:3] FGE2 | 
[V:4] B,,2A,,2 | 
[V:1] D2zF | 
[V:2] A2zF | 
[V:3] D2zd | 
[V:4] D,2zD, | 
[V:1] AAAB | 
[V:2] Fffe | 
[V:3] ddcB | 
[V:4] D,D,F,G, | 
[V:1] BAB2 | 
[V:2] f>dd2 | 
[V:3] c2B2 | 
[V:4] F,2B,,2 | 
[V:1] zBAG | 
[V:2] zdfg | 
[V:3] zBcc | 
[V:4] zB,,F,E, | 
[V:1] BA>GG- | 
[V:2] fd2c | 
[V:3] d2BA/G/ | 
[V:4] D,2_E,2 | 
[V:1] G^FG2 | 
[V:2] d4- | 
[V:3] A2G2 | 
[V:4] D,2G,2 | 
[V:1] zGGG | 
[V:2] d2zd- | 
[V:3] zBBB | 
[V:4] zG,G,G, | 
[V:1] G2F2 | 
[V:2] ddd2 | 
[V:3] BBAA | 
[V:4] G,2D,2 | 
[V:1] zGFG- | 
[V:2] G2zG- | 
[V:3] zGAB- | 
[V:4] zC,F,_E,- | 
[V:1] G/F/F2E | 
[V:2] G/A/Bc2 | 
[V:3] B/A/FG2 | 
[V:4] E,D,C,2 | 
[V:1] F4 | 
[V:2] A2d2 | 
[V:3] F2zF | 
[V:4] F,2zD, | 
[V:1] z4 | 
[V:2] z2d2 | 
[V:3] GA>FB- | 
[V:4] E,F,2D, | 
[V:1] z2B2 | 
[V:2] _e_ed/c/ B/A/ | 
[V:3] BAB2 | 
[V:4] C,2B,,G,, | 
[V:1] BBA2 | 
[V:2] G2F2 | 
[V:3] z4 | 
[V:4] G,,G,,D,2 | 
[V:1] zAAA | 
[V:2] zfff | 
[V:3] zccc | 
[V:4] zF,F,F, | 
[V:1] G2FE- | 
[V:2] e2d=B | 
[V:3] c>BAG- | 
[V:4] C,2D,E, | 
[V:1] E/D/D2^C | 
[V:2] cA2A | 
[V:3] GFE2 | 
[V:4] C,D,A,,2 | 
[V:1] D2zF | 
[V:2] A2zA | 
[V:3] D2zd | 
[V:4] D,2zD, | 
[V:1] AAAB | 
[V:2] Fffe | 
[V:3] ddcB | 
[V:4] D,D,F,G, | 
[V:1] B/A/A/G/B2 | 
[V:2] f2d2 | 
[V:3] c2B2 | 
[V:4] F,2B,,2 | 
[V:1] zBAG | 
[V:2] zdfg | 
[V:3] zBcc | 
[V:4] zB,,F,E, | 
[V:1] BA>GG- | 
[V:2] fd>cc/B/ | 
[V:3] d2BA/G/ | 
[V:4] D,2_E,2 | 
[V:1] G/^F/F/E/G2- | 
[V:2] d4 | 
[V:3] A2G2- | 
[V:4] D,2G,,2- | 
[V:1] G4 |]  
[V:2] d4 |]  
[V:3] G4 |]  
[V:4] G,,4 |]  


